!!!!SEGMENT: Ren2005-Paradisi_portas_aperuit.krn
!!!id: Ren2005
!!!AGN: Motet
!!!voices: 4
!!!COM: Renaldo
!!!OTL: Paradisi portas aperuit
**kern	**kern	**kern	**kern
*part4	*part3	*part2	*part1
*staff4	*staff3	*staff2	*staff1
*I"Bassus	*I"Tenor	*I"Altus	*I"Superius
*I'B	*I'T	*I'A	*I'S
*clefF4	*clefGv2	*clefGv2	*clefG2
*k[b-]	*k[b-]	*k[b-]	*k[b-]
*F:	*F:	*F:	*F:
*M2/1	*M2/1	*M2/1	*M2/1
*met(C|)	*met(C|)	*met(C|)	*met(C|)
!!section: Prima Pars: Paradisi portas aperuit
!!!OMD: Prima Pars: Paradisi portas aperuit
=1	=1	=1	=1
0r	0r	1r	0f
.	.	[1B-y	.
=2	=2	=2	=2
0r	0r	1B-]	1g
.	.	1c	1a
=3	=3	=3	=3
0r	1r	1.d	2.f
.	.	.	4e
.	[1F	.	4f
.	.	.	4g
.	.	[2f	[2a
=4	=4	=4	=4
0r	1F]	2f]	4a]
.	.	.	4b-y
.	.	2e	1cc
.	1G	1d	.
.	.	.	2b-y
=5	=5	=5	=5
0F	0A	1c	1.cc
.	.	2.f	.
.	.	.	4b-y
.	.	4e	4a
=6	=6	=6	=6
1G	1B-y	1d	2.g
.	.	.	4f
2.A	2c	1c	2e
.	4F	.	[2a
4G	4G	.	.
=7	=7	=7	=7
2F	4A	1r	2a]
.	4B-y	.	.
2E	1c	.	2g
1D	.	1F	1f
.	2BnXi	.	.
=8	=8	=8	=8
1C	0c	1.G	2.e
.	.	.	4f
2r	.	.	2g
2F	.	2F	2a
=9	=9	=9	=9
2E	2r	2G	2g
2F	2c	2A	2f
2C	2c	2G	2e
[2F	2c	2A	[2a
=10	=10	=10	=10
2F]	2A	2c	4a]
.	.	.	4g
2BB-y	2B-y	2d	1f
1C	1G	1c	.
.	.	.	2e
=11	=11	=11	=11
0FF	1F	[0A	1f
.	1c	.	1r
=12	=12	=12	=12
2r	2c	1A]	0r
2F	2c	.	.
2F	2A	1r	.
2D	2B-y	.	.
=13	=13	=13	=13
2E	2c	0r	0r
2.F	2.d	.	.
4E	4c	.	.
4D	[2c	.	.
4C	.	.	.
=14	=14	=14	=14
1D	2c]	0r	1r
.	2BnXi	.	.
1C	1c	.	2r
.	.	.	2g
=15	=15	=15	=15
0r	0r	2c	2g
.	.	2c	2e
.	.	2A	2f
.	.	2B-y	2g
=16	=16	=16	=16
0r	0r	2c	2a
.	.	2.d	2.b-y
.	.	4c	4a
.	.	4B-y	[2a
.	.	4A	.
=17	=17	=17	=17
1r	1r	1B-y	2a]
.	.	.	2g
2r	2c	2.A	[1a
2F	2c	.	.
.	.	4B-y	.
=18	=18	=18	=18
2F	2A	2c	1a]
2D	2B-y	2d	.
2E	1c	2G	2r
[2F	.	[2c	[2a
=19	=19	=19	=19
4F]	2A	2c]	4a]
4E	.	.	4g
4D	2.B-y	1d	2.g
4C	.	.	.
1D	.	.	.
.	4A	.	4f
.	4G	2BnXi	[2f
.	4F	.	.
=20	=20	=20	=20
1C	1G	1c	2f]
.	.	.	2e
[1F	[1F	[1c	[1f
=21	=21	=21	=21
1F]	1F]	1c]	1f]
[1C	[1c	[1e	[1g
=22	=22	=22	=22
1C]	1c]	1e]	1g]
2C	2c	2e	2g
2C	2c	2e	2g
=23	=23	=23	=23
1C	1c	1e	1g
[1F	[1c	1f	[1a
=24	=24	=24	=24
1F]	1c]	1f	1a]
1G	2.B-y	1d	2g
.	.	.	[2b-y
.	4c	.	.
=25	=25	=25	=25
2G	4d	2r	2b-]
.	4B-y	.	.
1F	2c	2.f	2.a
.	2A	.	.
.	.	4e	4g
[2G	[2B-y	4d	[2g
.	.	4c	.
=26	=26	=26	=26
4G]	4B-]	1d	2g]
4F	4A	.	.
2D	2A	.	2f
1E-X	2A	2B-y	1g
.	2G	2c	.
=27	=27	=27	=27
2D	1A	2d	1f
2D	.	2d	.
2F	1r	2d	1r
[2G	.	[2e	.
=28	=28	=28	=28
4G]	0r	4e]	0r
4F	.	4d	.
4E	.	1d	.
4D	.	.	.
1E	.	.	.
.	.	2c#i	.
=29	=29	=29	=29
2D	2r	2d	2r
2F	2A	2c	2a
2F	2c	2f	2a
2BB-y	[2d	2f	[2b-y
=30	=30	=30	=30
1F	4d]	1f	4b-]
.	4c	.	4a
.	2A	.	1a
1G	1B-y	1d	.
.	.	.	2g
=31	=31	=31	=31
1D	2A	2.d	1a
.	2F	.	.
.	.	4c	.
1r	1c	2A	2r
.	.	2c	2e
=32	=32	=32	=32
2r	1d	1B-y	2.f
2BB-y	.	.	.
.	.	.	4g
1F	2r	2A	1a
.	[2c	[2f	.
=33	=33	=33	=33
1G	2c]	2f]	1b-y
.	2B-y	2e	.
1F	1c	1f	1a
=34	=34	=34	=34
2r	2r	2r	2r
1F	1c	1f	1a
2F	2c	2f	2a
=35	=35	=35	=35
2F	2c	2f	2a
2F	2c	2f	2a
1BB-y	1d	1f	1b-y
=36	=36	=36	=36
1F	1c	0f	0a
2r	4F	.	.
.	4G	.	.
[2F	4A	.	.
.	4B-y	.	.
=37	=37	=37	=37
2F]	2c	1r	1f
4E	2d	.	.
4D	.	.	.
2E	2c	2r	2g
2F	2A	2f	2a
=38	=38	=38	=38
2G	2B-y	2d	1g
2C	2c	2e	.
1D	1A	1d	[1f
=39	=39	=39	=39
1BB-y	2.B-y	1d	2f]
.	.	.	4e
.	4A	.	4d
2C	2G	2c	2e
2D	2F	2B-y	[2f
=40	=40	=40	=40
1C	1G	1c	2f]
.	.	.	2e
1FF	1F	[1A	[1f
=41	=41	=41	=41
0r	0r	2A]	1f]
.	.	1B-y	.
.	.	.	2r
.	.	4A	[2f
.	.	4G	.
=42	=42	=42	=42
0r	0r	2A	2f]
.	.	2B-y	4e
.	.	.	4d
.	.	1c	2e
.	.	.	2f
=43	=43	=43	=43
0r	0r	2r	1g
.	.	1c	.
.	.	.	2r
.	.	4B-y	[2g
.	.	4A	.
=44	=44	=44	=44
0r	0r	2B-y	2g]
.	.	2c	4f
.	.	.	4e
.	.	2d	2f
.	.	2B-y	2g
=45	=45	=45	=45
0r	0r	2c	2a
.	.	2.d	2.b-y
.	.	4c	4a
.	.	4B-y	[2a
.	.	4A	.
=46	=46	=46	=46
0r	0r	1B-y	2a]
.	.	.	2g
.	.	1A	1a
=47	=47	=47	=47
2r	2r	2r	2r
1F	1c	1f	1a
2F	2c	2f	2a
=48	=48	=48	=48
2F	2c	2f	2a
2F	2c	2f	2a
2G	2B-y	2d	2g
2G	2B-y	2d	2g
=49	=49	=49	=49
1F	1c	1f	1a
2r	2r	2r	2r
2F	2c	2f	2a
=50	=50	=50	=50
2F	2c	2f	2a
2D	2d	2f	2a
2G	2B-y	2d	2g
[2F	[2c	[2f	[2a
=51	=51	=51	=51
2F]	4c]	4f]	4a]
.	4A	4e	4g
2BB-y	2B-y	2d	1f
1C	1G	1c	.
.	.	.	2e
=52	=52	=52	=52
0FF	0F	1c	2.f
.	.	.	4g
.	.	1f	1a
=53	=53	=53	=53
0r	0r	2d	2b-y
.	.	2e	1cc
.	.	1c	.
.	.	.	2a
=54	=54	=54	=54
1r	1r	2d	2b-y
.	.	2B-y	1g
2r	1c	1r	.
[2F	.	.	[2a
=55	=55	=55	=55
2F]	2A	2c	2a]
2D	2B-y	2d	2f
2E	1G	2B-y	2g
[2C	.	[2c	[2e
=56	=56	=56	=56
2C]	1A	2c]	2e]
1D	.	2A	1f
.	2F	1d	.
2BB-y	2G	.	2d
=57	=57	=57	=57
2C	2E	2c	4e
.	.	.	4c
2D	2F	2B-y	1f
1C	1G	1c	.
.	.	.	2e
=58	=58	=58	=58
2FF	2F	2A	2f
2F	2c	2f	2a
2F	2c	2f	2a
2F	2c	2f	2a
=59	=59	=59	=59
4BB-y	1d	1f	1b-y
4C	.	.	.
4D	.	.	.
4E	.	.	.
2F	2c	2.f	2a
[2BB-y	[2B-y	.	[2g
.	.	4e	.
=60	=60	=60	=60
4BB-]	4B-]	4d	4g]
4C	4A	4c	4f
2D	4G	2B-y	1f
.	4F	.	.
1C	1G	1c	.
.	.	.	2e
=61	=61	=61	=61
0D	0F	1.A	1.f
.	.	2B-y	4e
.	.	.	4d
=62	=62	=62	=62
0C	0G	0c	0e
=63	=63	=63	=63
0FF	0F	0A	0f
=64	=64	=64	=64
00FFl	00Fl	00Al	00fl
==	==	==	==
*-	*-	*-	*-
!!!system-decoration: [*]
!!!RDF**kern: i = editorial accidental
!!!RDF**kern: l = terminal long
!!!ENC: Benjamin Ory
!!!END: 2024/12/18
!!!EED: Benjamin Ory
!!!EEV: 2025/02/20
!!!YEC: Copyright 2025 Benjamin Ory, All Rights Reserved
!!!ONB: Translated from MusicXML on 2025/02/20